X:1
T:Title
%%score [ ( 1 2 ) ( 3 4 ) ]
L:1/8
Q:1/4=120
M:4/4
K:Eb
V:1 treble nm="Midi_74" snm=" "
V:2 treble 
V:3 bass nm="Midi_74"
V:4 bass 
V:1
!mf!"^V.S.S. Coles\n(1845-1929)" BA | G2 GF"^We pray thee, heavenly Father" E2 F2 | G4 G2 B2 | %3
w: We *|pray thee, * heav'n- ly|Fa- ther, To|
w: |||
w: With *|in the * pure ob-|la- tion, Be-|
 A2 G2 AG F2 |"^Later form of melody\n by W. Lloyd\n(1785-1852)" E6 || BA | G2 GF E2 F2 | %7
w: hear us in * thy|love,|And *|pour up * on thy|
w: ||||
w: neath the out * ward|sign,|By *|that his * o- pe-|
 G4 G2 B2 | A2 G2 AG F2 | E6 || B2 | c2 B2 c2 d2 | e4 B2 G2 | B2 c2 B2 G2 | F6 || GF | %16
w: chil- dren The|unc- tion from * a-|bove;|That|so in love a-|bid- ing, From|all de- file- ment|free,|We *|
w: |||||||||
w: ra- tion,- The|Ho- ly Ghost * di-|vine,-|Lies|hid the sa- cred|bo- dy, Lies|hid the pre- cious|blood,|Once *|
 E2 EF G2 GF | (G2 =A2) B2 E2 | G2 B2 AG F2 | E6 |] %20
w: may in * pure- ness *|of * fer Our|Eu- cha- rist * to|thee.|
w: ||||
w: slain, now * e- ver *|glo * rious, Of|Christ our Lord * and|God.|
V:2
 GF | E2 D2 C2 D2 | E4 E2 E2 | D2 E2 E2 D2 | E6 || F2 | E2 D2 C2 D2 | E4 E2 D2 | E2 E2 FE D2 | %9
w: |||||||||
w: All *|that we have we|of- fer, For|it is all thine|own,|All|gifts, by thine ap-|point- ment, In|bread and cup * are|
w: |||||||||
w: Where *|fore, though all un-|wor- thy To|of- fer sac- ri-|fice,|We|pray that this our|du- ty Be|plea- sing in * thine|
 E6 || G2 | E2 E2 E2 F2 | E4 F2 E2 | E2 E2 E2 B,C | D6 || D2 | C2 E2 D2 E2 | E4 B,2 B,2 | %18
w: |||||||||
w: shown;|One|thing a- lone we|bring not, The|wil- ful- ness of *|sin,|And|all we bring is|no- thing Save|
w: |||||||||
w: eyes;|For|praise, and thanks and|wor- ship, For|mer- cy and for *|aid,|The|ca- tho- lic ob-|la- tion Of|
 E2 E2 E2 D2 | E6 |] %20
w: ||
w: that which is with-|in.|
w: ||
w: Je- sus Christ is|made.|
V:3
 B,2 | B,2 B,A, G,2 B,2 | B,4 B,2 B,2 | B,2 B,2 CB, A,2 | G,6 || B,2 | B,2 B,A, G,2 B,2 | %7
 B,4 B,2 B,2 | C2 B,2 C2 F,2 | G,6 || E2 | C2 E2 CB, A,2 | (G,2 =A,2) B,2 B,2 | B,2 A,2 B,2 B,2 | %14
 B,6 ||"^This edition produced by Andrew Sims 2008" G,2 | G,2 A,2 B,2 C2 | (B,2 E,2) F,2 G,2 | %18
 C2 B,2 C2 F,2 | G,6 |] %20
V:4
 E,2 | E,2 B,,2 C,2 B,,2 | E,4 E,2 G,2 | F,2 E,2 A,,2 B,,2 | E,6 || D,2 | E,2 B,,2 C,2 B,,2 | %7
 E,4 E,2 G,2 | C,2 E,2 A,,2 B,,2 | E,6 || E,2 | A,2 G,2 A,G, F,2 | C,4 D,2 E,2 | G,2 A,2 G,2 E,2 | %14
 B,,6 || =B,,2 | C,2 C,2 B,,2 A,,2 | (E,D, C,2) D,2 E,2 | C,2 G,,2 A,,2 B,,2 | E,6 |] %20

